www/assets/icons/streetview.svg

<svg xmlns="http://www.w3.org/2000/svg" width="24" height="24" viewBox="0 0 24 24" fill='currentColor'><path d="M11.56 15.33c-.34.27-.56.7-.56 1.17V22h7c1.1 0 2-.9 2-2v-5.98c-.94-.33-1.95-.52-3-.52-2.03 0-3.93.7-5.44 1.83M17 12a5 5 0 1 0 0-10 5 5 0 0 0 0 10"/><path d="M10.5 7c0-1.08.27-2.1.74-3H4c-1.1 0-2 .9-2 2v14c0 .55.23 1.05.59 1.41l9.82-9.82A6.44 6.44 0 0 1 10.5 7"/></svg>

<svg width="24" height="24" viewBox="0 0 24 24" xmlns="http://www.w3.org/2000/svg" fill='currentColor'><path d="M11.56 15.33C11.22 15.6 11 16.03 11 16.5V22H18C19.1 22 20 21.1 20 20V14.02C19.06 13.69 18.05 13.5 17 13.5C14.97 13.5 13.07 14.2 11.56 15.33Z"/><path d="M17 12C19.7614 12 22 9.76142 22 7C22 4.23858 19.7614 2 17 2C14.2386 2 12 4.23858 12 7C12 9.76142 14.2386 12 17 12Z"/><path d="M10.5 7C10.5 5.92 10.77 4.9 11.24 4H4C2.9 4 2 4.9 2 6V20C2 20.55 2.23 21.05 2.59 21.41L12.41 11.59C11.23 10.42 10.5 8.8 10.5 7Z"/></svg>
